build/img/mouse.svg

<svg width="30" height="30" viewBox="0 0 30 30" fill="none" xmlns="http://www.w3.org/2000/svg">
<g opacity="0.8" clip-path="url(#clip0_4_31)">
<path d="M14.9767 0C10.1109 0 6.15235 3.95851 6.15235 8.82431V21.1757C6.15235 26.0415 10.1109 30 14.9767 30C19.8425 30 23.801 26.0415 23.801 21.1757V8.82431C23.801 3.95851 19.8425 0 14.9767 0ZM22.001 21.1757C22.001 25.0488 18.8498 28.2001 14.9767 28.2001C11.1035 28.2001 7.95228 25.0488 7.95228 21.1757V8.82431C7.95228 4.95117 11.1035 1.79993 14.9767 1.79993C18.8498 1.79993 22.001 4.95117 22.001 8.82431V21.1757Z" fill="white"/>
<path d="M14.9769 5.9679C14.4798 5.9679 14.0769 6.37073 14.0769 6.86786V11.0102C14.0769 11.5071 14.4798 11.9101 14.9769 11.9101C15.4738 11.9101 15.8768 11.5071 15.8768 11.0102V6.86786C15.8768 6.37073 15.474 5.9679 14.9769 5.9679Z" fill="white"/>
</g>
<defs>
<clipPath id="clip0_4_31">
<rect width="30" height="30" fill="white"/>
</clipPath>
</defs>
</svg>

<svg width="30" height="30" fill="none" xmlns="http://www.w3.org/2000/svg"><g opacity=".8" clip-path="url(#clip0_4_31)" fill="#fff"><path d="M14.977 0C10.11 0 6.152 3.959 6.152 8.824v12.352c0 4.866 3.959 8.824 8.825 8.824s8.824-3.959 8.824-8.824V8.824C23.801 3.96 19.843 0 14.977 0zM22 21.176a7.032 7.032 0 01-7.024 7.024 7.033 7.033 0 01-7.025-7.024V8.824A7.032 7.032 0 0114.977 1.8 7.032 7.032 0 0122 8.824v12.352z"/><path d="M14.977 5.968a.9.9 0 00-.9.9v4.142a.9.9 0 001.8 0V6.868a.9.9 0 00-.9-.9z"/></g><defs><clipPath id="clip0_4_31"><path fill="#fff" d="M0 0h30v30H0z"/></clipPath></defs></svg>
